X:19
T:This Is My Love, Do You Like Her?
R:slide
H:See also #56, #57
Z:id:hn-slide-19
M:6/8
K:Ador
A2A AGE|c2B c2d|efe ede|g3 g2e|
def g2e|dBA G2A|Bde dBG|1 A2B c2B:|2 A3 ABd||
|:eaa age|dgg gfg|eaa agf|g2b a2g|
eaf g2e|dBA G2A|Bde dBG|1 A3 ABd:|2 A2B c2B||
<end>
<start>
